icons/midnadark/actions/24/office-chart-area-focus-peak-node.svg

<?xml version="1.0" encoding="UTF-8" standalone="no"?>
<!-- Created with Inkscape (http://www.inkscape.org/) -->

<svg
   xmlns:dc="http://purl.org/dc/elements/1.1/"
   xmlns:cc="http://creativecommons.org/ns#"
   xmlns:rdf="http://www.w3.org/1999/02/22-rdf-syntax-ns#"
   xmlns:svg="http://www.w3.org/2000/svg"
   xmlns="http://www.w3.org/2000/svg"
   xmlns:xlink="http://www.w3.org/1999/xlink"
   xmlns:sodipodi="http://sodipodi.sourceforge.net/DTD/sodipodi-0.dtd"
   xmlns:inkscape="http://www.inkscape.org/namespaces/inkscape"
   width="24"
   height="24"
   id="svg3869"
   version="1.1"
   inkscape:version="0.91 r13725"
   sodipodi:docname="office-chart-area-focus-peak-node.svg">
  <defs
     id="defs3871">
    <clipPath
       id="clipPath4160"
       clipPathUnits="userSpaceOnUse">
      <rect
         y="1023.3622"
         x="7"
         height="1"
         width="1"
         id="rect4162"
         style="opacity:1;fill:#f2f2f2;fill-opacity:1;stroke:none;stroke-opacity:1" />
    </clipPath>
    <linearGradient
       gradientTransform="translate(0,-1.9999941)"
       inkscape:collect="always"
       xlink:href="#linearGradient4021-3"
       id="linearGradient4123"
       gradientUnits="userSpaceOnUse"
       x1="3"
       y1="1045.3622"
       x2="15"
       y2="1045.3622" />
    <linearGradient
       id="linearGradient4021-3">
      <stop
         id="stop4023-0"
         offset="0"
         style="stop-color:#b3b3b3;stop-opacity:1;" />
      <stop
         id="stop4025-2"
         offset="1"
         style="stop-color:#4d4d4d;stop-opacity:1;" />
    </linearGradient>
    <clipPath
       id="clipPath4160-8"
       clipPathUnits="userSpaceOnUse">
      <rect
         y="1023.3622"
         x="7"
         height="1"
         width="1"
         id="rect4162-9"
         style="opacity:1;fill:#f2f2f2;fill-opacity:1;stroke:none;stroke-opacity:1" />
    </clipPath>
  </defs>
  <sodipodi:namedview
     id="base"
     pagecolor="#ffffff"
     bordercolor="#666666"
     borderopacity="1.0"
     inkscape:pageopacity="0.0"
     inkscape:pageshadow="2"
     inkscape:zoom="22.627416"
     inkscape:cx="10.877947"
     inkscape:cy="10.286893"
     inkscape:document-units="px"
     inkscape:current-layer="layer1"
     showgrid="true"
     fit-margin-top="0"
     fit-margin-left="0"
     fit-margin-right="0"
     fit-margin-bottom="0"
     inkscape:window-width="1366"
     inkscape:window-height="633"
     inkscape:window-x="0"
     inkscape:window-y="33"
     inkscape:window-maximized="1"
     inkscape:showpageshadow="false"
     inkscape:snap-bbox="true"
     inkscape:object-nodes="true">
    <inkscape:grid
       type="xygrid"
       id="grid4132" />
    <sodipodi:guide
       position="4,18"
       orientation="18,0"
       id="guide4138" />
    <sodipodi:guide
       position="5,3"
       orientation="0,18"
       id="guide4140" />
    <sodipodi:guide
       position="20,2.0000174"
       orientation="-18,0"
       id="guide4142" />
    <sodipodi:guide
       position="2,21"
       orientation="0,-18"
       id="guide4144" />
    <sodipodi:guide
       position="3,19.000017"
       orientation="16,0"
       id="guide4146" />
    <sodipodi:guide
       position="2,4"
       orientation="0,16"
       id="guide4148" />
    <sodipodi:guide
       position="21,20"
       orientation="-16,0"
       id="guide4150" />
    <sodipodi:guide
       position="2,20"
       orientation="0,-16"
       id="guide4152" />
  </sodipodi:namedview>
  <metadata
     id="metadata3874">
    <rdf:RDF>
      <cc:Work
         rdf:about="">
        <dc:format>image/svg+xml</dc:format>
        <dc:type
           rdf:resource="http://purl.org/dc/dcmitype/StillImage" />
        <dc:title />
      </cc:Work>
    </rdf:RDF>
  </metadata>
  <g
     inkscape:label="Capa 1"
     inkscape:groupmode="layer"
     id="layer1"
     transform="translate(-326,-532.3622)">
    <g
       transform="translate(-224.28571,-74.28568)"
       id="layer1-7"
       inkscape:label="Capa 1">
      <path
         id="rect4144"
         transform="translate(551.28571,607.64788)"
         d="m 4,3 0,12 0,1 0,1 -1,0 0,1 1,0 0,1 1,0 0,-1 14,0 0,-1 L 5,17 5,16 5.00781,16 6,16 8,16 8,15.9922 8.00781,16 l 1.999999,-2 1.591797,0 2,2 3.5,0 L 19,16 l 0,-1 -1.900391,0 -3.085937,0 -2,-2 L 12,13 l -0.992188,0 -0.408203,0 -1.005859,0 -2,2 L 6,15 5.0078125,15 5,15 5,11 10,11 10,10.9922 10.007812,11 11.003906,10.003906 10.296875,9.296875 9.59375,10 5,10 5,3 4,3 Z M 14,5.59375 13.292969,6.3007812 12.296875,7.296875 13.003906,8.0039062 14,7.0078125 14.996094,8.0039062 15.703125,7.296875 14,5.59375 Z M 19,8 18,9 19,9 19,8 Z"
         style="opacity:1;fill:#ffffff;fill-opacity:1;stroke:none;stroke-width:2.79999995;stroke-miterlimit:4;stroke-dasharray:none;stroke-opacity:0.55026455"
         inkscape:connector-curvature="0" />
      <path
         id="rect4274"
         transform="translate(551.28571,607.64788)"
         d="m 11,4 0,2 1,0 0,-1 1,0 0,-1 -2,0 z m 4,0 0,1 1,0 0,1 1,0 0,-2 -2,0 z m -4,4 0,2 2,0 0,-1 -1,0 0,-1 -1,0 z m 5,0 0,1 -1,0 0,1 2,0 0,-2 -1,0 z"
         style="opacity:1;fill:#ffffff;fill-opacity:1;stroke:none;stroke-width:2.79999995;stroke-miterlimit:4;stroke-dasharray:none;stroke-opacity:0.55026455"
         inkscape:connector-curvature="0" />
      <path
         sodipodi:nodetypes="ccccccccc"
         inkscape:connector-curvature="0"
         id="path4149"
         d="m 556.28572,623.64791 0,1 14,0 0,-1 -5.40001,0 -2,-2 -1.59999,0 -2,2 z"
         style="fill:#4d4d4d;fill-opacity:0.45930236;fill-rule:evenodd;stroke:none;stroke-width:1px;stroke-linecap:butt;stroke-linejoin:miter;stroke-opacity:1" />
      <path
         id="path4150"
         transform="translate(551.28571,607.64788)"
         d="M 14,7 12.003906,9 13,9 13,10 11.005859,10 10.007812,11 5,11 l 0,4 2.5996094,0 2,-2 2.4082026,0 L 14,14.992188 19,15 l 0,-6 -2,0 0,1 -2,0 0,-1 1,0 -2,-2 z"
         style="fill:#4d4d4d;fill-opacity:0.45882353;fill-rule:evenodd;stroke:none;stroke-width:1px;stroke-linecap:butt;stroke-linejoin:miter;stroke-opacity:1"
         inkscape:connector-curvature="0" />
    </g>
  </g>
</svg>

<svg xmlns="http://www.w3.org/2000/svg" viewBox="0 0 24 24"><defs><clipPath><path fill="#f2f2f2" d="m7 1023.36h1v1h-1z"/></clipPath><clipPath><path fill="#f2f2f2" d="m7 1023.36h1v1h-1z"/></clipPath></defs><g transform="translate(-550.29-606.65)"><g fill="#fff" transform="translate(551.29 607.65)"><path d="m4 3v12 1 1h-1v1h1v1h1v-1h14v-1h-14v-1h.008.992 2v-.008l.008.008 2-2h1.592l2 2h3.5 1.9v-1h-1.9-3.086l-2-2h-.014-.992-.408-1.01l-2 2h-1.594-.992-.008v-4h5v-.008l.008.008.996-.996-.707-.707-.703.703h-4.594v-7h-1m10 2.594l-.707.707-.996.996.707.707.996-.996.996.996.707-.707-1.703-1.703m5 2.406l-1 1h1v-1"/><path d="m11 4v2h1v-1h1v-1h-2m4 0v1h1v1h1v-2h-2m-4 4v2h2v-1h-1v-1h-1m5 0v1h-1v1h2v-2h-1"/></g><g fill="#4d4d4d" fill-rule="evenodd" fill-opacity=".459"><path d="m556.29 623.65v1h14v-1h-5.4l-2-2h-1.6l-2 2z"/><path transform="translate(551.29 607.65)" d="m14 7l-1.996 2h.996v1h-1.994l-.998 1h-5.01v4h2.6l2-2h2.408l1.992 1.992 5 .008v-6h-2v1h-2v-1h1l-2-2"/></g></g></svg>
